packages/ffe-icons/icons/open/400/sm/camera_roll.svg

<svg xmlns="http://www.w3.org/2000/svg" height="20" viewBox="0 -960 960 960" width="20"><path d="M168-72q-29.7 0-50.85-21.15Q96-114.3 96-144v-576q0-29.7 21.15-50.85Q138.3-792 168-792h48v-24q0-20.4 13.8-34.2Q243.6-864 264-864h144q20.4 0 34.2 13.8Q456-836.4 456-816v24h48q29.7 0 50.85 21.15Q576-749.7 576-720v24h216q29.7 0 50.85 21.15Q864-653.7 864-624v384q0 29.7-21.15 50.85Q821.7-168 792-168H576v24q0 29.7-21.15 50.85Q533.7-72 504-72H168Zm0-72h336v-96h288v-384H504v-96H168v576Zm251.79-360q15.21 0 25.71-10.29t10.5-25.5q0-15.21-10.29-25.71t-25.5-10.5q-15.21 0-25.71 10.29t-10.5 25.5q0 15.21 10.29 25.71t25.5 10.5Zm144 0q15.21 0 25.71-10.29t10.5-25.5q0-15.21-10.29-25.71t-25.5-10.5q-15.21 0-25.71 10.29t-10.5 25.5q0 15.21 10.29 25.71t25.5 10.5Zm144 0q15.21 0 25.71-10.29t10.5-25.5q0-15.21-10.29-25.71t-25.5-10.5q-15.21 0-25.71 10.29t-10.5 25.5q0 15.21 10.29 25.71t25.5 10.5Zm-288 216q15.21 0 25.71-10.29t10.5-25.5q0-15.21-10.29-25.71t-25.5-10.5q-15.21 0-25.71 10.29t-10.5 25.5q0 15.21 10.29 25.71t25.5 10.5Zm144 0q15.21 0 25.71-10.29t10.5-25.5q0-15.21-10.29-25.71t-25.5-10.5q-15.21 0-25.71 10.29t-10.5 25.5q0 15.21 10.29 25.71t25.5 10.5Zm144 0q15.21 0 25.71-10.29t10.5-25.5q0-15.21-10.29-25.71t-25.5-10.5q-15.21 0-25.71 10.29t-10.5 25.5q0 15.21 10.29 25.71t25.5 10.5ZM336-432Z"/></svg>

<svg xmlns="http://www.w3.org/2000/svg" height="20" viewBox="0 -960 960 960" width="20"><path d="M168-72q-29.7 0-50.85-21.15Q96-114.3 96-144v-576q0-29.7 21.15-50.85Q138.3-792 168-792h48v-24q0-20.4 13.8-34.2Q243.6-864 264-864h144q20.4 0 34.2 13.8Q456-836.4 456-816v24h48q29.7 0 50.85 21.15Q576-749.7 576-720v24h216q29.7 0 50.85 21.15Q864-653.7 864-624v384q0 29.7-21.15 50.85Q821.7-168 792-168H576v24q0 29.7-21.15 50.85Q533.7-72 504-72H168Zm0-72h336v-96h288v-384H504v-96H168v576Zm251.789-360Q435-504 445.5-514.289q10.5-10.29 10.5-25.5Q456-555 445.711-565.5q-10.29-10.5-25.5-10.5Q405-576 394.5-565.711q-10.5 10.29-10.5 25.5Q384-525 394.289-514.5q10.29 10.5 25.5 10.5Zm144 0Q579-504 589.5-514.289q10.5-10.29 10.5-25.5Q600-555 589.711-565.5q-10.29-10.5-25.5-10.5Q549-576 538.5-565.711q-10.5 10.29-10.5 25.5Q528-525 538.289-514.5q10.29 10.5 25.5 10.5Zm144 0Q723-504 733.5-514.289q10.5-10.29 10.5-25.5Q744-555 733.711-565.5q-10.29-10.5-25.5-10.5Q693-576 682.5-565.711q-10.5 10.29-10.5 25.5Q672-525 682.289-514.5q10.29 10.5 25.5 10.5Zm-288 216Q435-288 445.5-298.289q10.5-10.29 10.5-25.5Q456-339 445.711-349.5q-10.29-10.5-25.5-10.5Q405-360 394.5-349.711q-10.5 10.29-10.5 25.5Q384-309 394.289-298.5q10.29 10.5 25.5 10.5Zm144 0Q579-288 589.5-298.289q10.5-10.29 10.5-25.5Q600-339 589.711-349.5q-10.29-10.5-25.5-10.5Q549-360 538.5-349.711q-10.5 10.29-10.5 25.5Q528-309 538.289-298.5q10.29 10.5 25.5 10.5Zm144 0Q723-288 733.5-298.289q10.5-10.29 10.5-25.5Q744-339 733.711-349.5q-10.29-10.5-25.5-10.5Q693-360 682.5-349.711q-10.5 10.29-10.5 25.5Q672-309 682.289-298.5q10.29 10.5 25.5 10.5ZM336-432Z"/></svg>
